X: 556
P: Longways for as many as will
M: C|
L: 1/8
K: Dm
e2 |\
f2 (dc) (^cd) (e^c) | d2 D4 e2 |\
f2 (ed) (^cd) (e^c) | d6 |]\
e2 |\
f2 f2 c2 c2 | f2 f6 |\
f2 f2 e3 e | d2 d2 ^c3 A |\

